themes/asg/static/images/icons/flickr-icon.svg

<svg width="79" height="24" viewBox="0 0 79 24" fill="none" xmlns="http://www.w3.org/2000/svg">
<path d="M5.50557 11.0001H3V7.90247H5.57855V7.12198C5.57855 3.31708 7.30569 2 10.7113 2C11.6357 2 12.3412 2.14634 12.8763 2.2439L12.6087 5.2927C12.2439 5.17075 11.9033 5.09758 11.2708 5.09758C10.1762 5.09758 9.76261 5.87807 9.76261 7.12198V7.90247H12.779V11.0001H9.76261V20.683H5.50557V11.0001Z" fill="#0063DB"/>
<path d="M19.2498 2.29199H14.9927V20.6823H19.2498V2.29199Z" fill="#0063DB"/>
<path d="M27.1557 2.58496H22.8987V5.82888H27.1557V2.58496Z" fill="#0063DB"/>
<path d="M27.1557 7.90332H22.8987V20.6839H27.1557V7.90332Z" fill="#0063DB"/>
<path d="M39.9268 11.5616C39.1484 11.0738 38.3699 10.8543 37.3482 10.8543C35.4995 10.8543 34.0886 12.1714 34.0886 14.3909C34.0886 16.4153 35.7427 17.7567 37.5915 17.7567C38.5645 17.7567 39.5376 17.5372 40.243 17.147L40.3403 20.4397C39.27 20.8055 38.005 21.0007 36.8617 21.0007C32.7993 21.0007 29.7099 18.5372 29.7099 14.3177C29.7099 10.0738 32.7993 7.61035 36.8617 7.61035C38.1267 7.61035 39.27 7.82986 40.243 8.31767L39.9268 11.5616Z" fill="#0063DB"/>
<path d="M42.0918 2.29199H46.3488V13.2921H46.3975L49.949 7.90178H54.5953L50.3139 13.7799L54.9602 20.7067H49.8031L46.3975 14.3652H46.3488V20.7067H42.0918V2.29199Z" fill="#0063DB"/>
<path d="M65.3231 11.4396C64.8609 11.2933 64.3744 11.2933 63.8879 11.2933C61.8931 11.2933 60.7985 12.7811 60.7985 15.2933V20.6836H56.5414V7.90304H60.4093V10.2689H60.4579C61.1877 8.65914 62.258 7.61035 64.1068 7.61035C64.5933 7.61035 65.1285 7.68352 65.542 7.75669L65.3231 11.4396Z" fill="#FF0084"/>
</svg>

<svg width="79" height="24" fill="none" xmlns="http://www.w3.org/2000/svg"><path d="M5.506 11H3V7.902h2.579v-.78C5.579 3.317 7.306 2 10.71 2c.925 0 1.63.146 2.165.244l-.267 3.049c-.365-.122-.706-.195-1.338-.195-1.095 0-1.508.78-1.508 2.024v.78h3.016V11H9.763v9.683H5.506V11zM19.25 2.292h-4.257v18.39h4.257V2.292zm7.906.293h-4.257v3.244h4.257V2.585zm0 5.318h-4.257v12.78h4.257V7.904zm12.771 3.659c-.779-.488-1.557-.708-2.579-.708-1.849 0-3.26 1.317-3.26 3.537 0 2.024 1.655 3.366 3.504 3.366.973 0 1.946-.22 2.651-.61l.097 3.293c-1.07.365-2.335.56-3.478.56-4.063 0-7.152-2.463-7.152-6.682 0-4.244 3.09-6.708 7.152-6.708 1.265 0 2.408.22 3.381.708l-.316 3.244zm2.165-9.27h4.257v11h.049l3.551-5.39h4.646l-4.281 5.878 4.646 6.927h-5.157l-3.405-6.342h-.05v6.342h-4.256V2.292z" fill="#0063DB"/><path d="M65.323 11.44c-.462-.147-.949-.147-1.435-.147-1.995 0-3.09 1.488-3.09 4v5.39h-4.257V7.904h3.868v2.366h.049c.73-1.61 1.8-2.659 3.649-2.659.486 0 1.022.074 1.435.147l-.219 3.683z" fill="#FF0084"/></svg>
